public/icon/icons/trash.svg

<svg xmlns="http://www.w3.org/2000/svg" viewBox="0 0 24 24">
  <path d="m15.707,11.707l-2.293,2.293,2.293,2.293c.391.391.391,1.023,0,1.414-.195.195-.451.293-.707.293s-.512-.098-.707-.293l-2.293-2.293-2.293,2.293c-.195.195-.451.293-.707.293s-.512-.098-.707-.293c-.391-.391-.391-1.023,0-1.414l2.293-2.293-2.293-2.293c-.391-.391-.391-1.023,0-1.414s1.023-.391,1.414,0l2.293,2.293,2.293-2.293c.391-.391,1.023-.391,1.414,0s.391,1.023,0,1.414Zm7.293-6.707c0,.553-.448,1-1,1h-.885l-1.276,13.472c-.245,2.581-2.385,4.528-4.978,4.528h-5.727c-2.589,0-4.729-1.943-4.977-4.521l-1.296-13.479h-.86c-.552,0-1-.447-1-1s.448-1,1-1h4.101c.465-2.279,2.485-4,4.899-4h2c2.414,0,4.435,1.721,4.899,4h4.101c.552,0,1,.447,1,1Zm-14.828-1h7.656c-.413-1.164-1.524-2-2.828-2h-2c-1.304,0-2.415.836-2.828,2Zm10.934,2H4.87l1.278,13.287c.148,1.547,1.432,2.713,2.986,2.713h5.727c1.556,0,2.84-1.168,2.987-2.718l1.258-13.282Z"/>
</svg>

<svg xmlns="http://www.w3.org/2000/svg" viewBox="0 0 24 24"><path d="M15.707 11.707 13.414 14l2.293 2.293a.999.999 0 1 1-1.414 1.414L12 15.414l-2.293 2.293a.997.997 0 0 1-1.414 0 .999.999 0 0 1 0-1.414L10.586 14l-2.293-2.293a.999.999 0 1 1 1.414-1.414L12 12.586l2.293-2.293a.999.999 0 1 1 1.414 1.414ZM23 5a1 1 0 0 1-1 1h-.885l-1.276 13.472A4.98 4.98 0 0 1 14.861 24H9.134a4.98 4.98 0 0 1-4.977-4.521L2.861 6h-.86a1 1 0 1 1 0-2h4.101a5.01 5.01 0 0 1 4.899-4h2A5.009 5.009 0 0 1 17.9 4h4.101a1 1 0 0 1 1 1ZM8.172 4h7.656A3.004 3.004 0 0 0 13 2h-2a3.004 3.004 0 0 0-2.828 2Zm10.934 2H4.87l1.278 13.287A2.987 2.987 0 0 0 9.134 22h5.727a2.988 2.988 0 0 0 2.987-2.718L19.106 6Z"/></svg>
